im/file-openoffice.svg

<svg version="1.1" xmlns="http://www.w3.org/2000/svg" viewBox="0 0 16 16" height="1em" width="1em">
  <path fill="#000000" d="M10.785 7.37c-0.948-0.448-2.156-0.538-3.044 0.095 1.080-0.103 2.265 0.076 3.049 0.893 0.75-0.861 1.939-1.022 3.015-0.933-0.898-0.596-2.082-0.516-3.019-0.054v0zM10.401 9.465c-1.068-0.025-2.101 0.362-2.986 0.939-1.675-0.712-3.793-0.58-5.219 0.609 0.411-0.015 0.813-0.116 1.22-0.169 1.487-0.148 3.072 0.221 4.196 1.247 0.465-0.68 1.119-1.223 1.87-1.561 0.986-0.477 2.096-0.526 3.169-0.539-0.651-0.448-1.478-0.531-2.249-0.526z"/>
  <path fill="#000000" d="M14.341 3.579c-0.347-0.473-0.831-1.027-1.362-1.558s-1.085-1.015-1.558-1.362c-0.806-0.591-1.197-0.659-1.421-0.659h-7.75c-0.689 0-1.25 0.561-1.25 1.25v13.5c0 0.689 0.561 1.25 1.25 1.25h11.5c0.689 0 1.25-0.561 1.25-1.25v-9.75c0-0.224-0.068-0.615-0.659-1.421v0zM12.271 2.729c0.48 0.48 0.856 0.912 1.134 1.271h-2.406v-2.405c0.359 0.278 0.792 0.654 1.271 1.134v0zM14 14.75c0 0.136-0.114 0.25-0.25 0.25h-11.5c-0.135 0-0.25-0.114-0.25-0.25v-13.5c0-0.135 0.115-0.25 0.25-0.25 0 0 7.749-0 7.75 0v3.5c0 0.276 0.224 0.5 0.5 0.5h3.5v9.75z"/>
</svg>

<svg xmlns="http://www.w3.org/2000/svg" viewBox="0 0 16 16" height="1em" width="1em">
  <path d="M10.785 7.37c-.948-.448-2.156-.538-3.044.095 1.08-.103 2.265.076 3.049.893.75-.861 1.939-1.022 3.015-.933-.898-.596-2.082-.516-3.019-.054zm-.384 2.095c-1.068-.025-2.101.362-2.986.939-1.675-.712-3.793-.58-5.219.609.411-.015.813-.116 1.22-.169 1.487-.148 3.072.221 4.196 1.247a4.52 4.52 0 0 1 1.87-1.561c.986-.477 2.096-.526 3.169-.539-.651-.448-1.478-.531-2.249-.526z"/>
  <path d="M14.341 3.579c-.347-.473-.831-1.027-1.362-1.558S11.894 1.006 11.421.659C10.615.068 10.224 0 10 0H2.25C1.561 0 1 .561 1 1.25v13.5c0 .689.561 1.25 1.25 1.25h11.5c.689 0 1.25-.561 1.25-1.25V5c0-.224-.068-.615-.659-1.421zm-2.07-.85c.48.48.856.912 1.134 1.271h-2.406V1.595c.359.278.792.654 1.271 1.134zM14 14.75c0 .136-.114.25-.25.25H2.25a.253.253 0 0 1-.25-.25V1.25c0-.135.115-.25.25-.25H10v3.5a.5.5 0 0 0 .5.5H14v9.75z"/>
</svg>
